src/assets/icons/twiter.svg

<svg width="14" height="12" viewBox="0 0 14 12" fill="none" xmlns="http://www.w3.org/2000/svg">
<path d="M12.5508 2.90625C12.569 2.97917 12.5781 3.09766 12.5781 3.26172C12.5781 4.57422 12.2591 5.84115 11.6211 7.0625C10.9648 8.35677 10.0443 9.38672 8.85938 10.1523C7.5651 11.0091 6.07943 11.4375 4.40234 11.4375C2.79818 11.4375 1.33073 11.0091 0 10.1523C0.200521 10.1706 0.428385 10.1797 0.683594 10.1797C2.01432 10.1797 3.20833 9.76953 4.26562 8.94922C3.6276 8.94922 3.0625 8.76693 2.57031 8.40234C2.09635 8.01953 1.76823 7.54557 1.58594 6.98047C1.76823 6.9987 1.94141 7.00781 2.10547 7.00781C2.36068 7.00781 2.61589 6.98047 2.87109 6.92578C2.21484 6.77995 1.66797 6.44271 1.23047 5.91406C0.792969 5.38542 0.574219 4.78385 0.574219 4.10938V4.05469C0.97526 4.29167 1.40365 4.41927 1.85938 4.4375C1.47656 4.16406 1.16667 3.81771 0.929688 3.39844C0.692708 2.97917 0.574219 2.52344 0.574219 2.03125C0.574219 1.52083 0.710938 1.03776 0.984375 0.582031C1.69531 1.47526 2.5612 2.1862 3.58203 2.71484C4.62109 3.24349 5.72396 3.53516 6.89062 3.58984C6.85417 3.37109 6.83594 3.15234 6.83594 2.93359C6.83594 2.42318 6.96354 1.94922 7.21875 1.51172C7.47396 1.05599 7.82031 0.700521 8.25781 0.445312C8.69531 0.190104 9.16927 0.0625 9.67969 0.0625C10.099 0.0625 10.4818 0.144531 10.8281 0.308594C11.1927 0.472656 11.5117 0.691406 11.7852 0.964844C12.4414 0.83724 13.0521 0.609375 13.6172 0.28125C13.3984 0.955729 12.9792 1.48438 12.3594 1.86719C12.9062 1.79427 13.4531 1.63932 14 1.40234C13.599 1.98568 13.1159 2.48698 12.5508 2.90625Z" fill="white"/>
</svg>

<svg xmlns="http://www.w3.org/2000/svg" width="14" height="12" fill="none"><path fill="#fff" d="M12.55 2.906c.019.073.028.192.028.356 0 1.312-.319 2.58-.957 3.8-.656 1.295-1.577 2.325-2.762 3.09-1.294.857-2.78 1.286-4.457 1.286A7.966 7.966 0 0 1 0 10.152c.2.019.428.028.684.028 1.33 0 2.524-.41 3.582-1.23a2.773 2.773 0 0 1-1.696-.548 2.966 2.966 0 0 1-.984-1.422c.182.019.355.028.52.028.255 0 .51-.028.765-.082a2.893 2.893 0 0 1-1.64-1.012A2.753 2.753 0 0 1 .573 4.11v-.054c.401.237.83.364 1.285.383a3.185 3.185 0 0 1-.93-1.04 2.732 2.732 0 0 1-.355-1.367c0-.51.137-.993.41-1.449A7.96 7.96 0 0 0 6.891 3.59a3.986 3.986 0 0 1-.055-.656c0-.51.128-.985.383-1.422A2.782 2.782 0 0 1 8.258.445 2.773 2.773 0 0 1 9.68.062c.419 0 .802.083 1.148.247.365.164.684.382.957.656A5.842 5.842 0 0 0 13.617.28a2.85 2.85 0 0 1-1.258 1.586A6.169 6.169 0 0 0 14 1.402a6.31 6.31 0 0 1-1.45 1.504Z"/></svg>
